!!!!SEGMENT: 
!!!COM: Beethoven
!!!OTL: 24 Variationen uber Venni Amore von V. Righini
!!!Variation: Variation 17 a
**function	**harm	**kern	**kern	**kern	**kern
*M2/4	*M2/4	*staff3	*staff4	*staff1	*staff2
*D:	*D:	*clefF4	*clefF4	*clefG2	*clefG2
*tb8	*	*k[f#c#]	*k[f#c#]	*k[f#c#]	*k[f#c#]
*	*	*M2/4	*M2/4	*M2/4	*M2/4
*	*	*D:	*D:	*D:	*D:
=	=	=-	=-	=-	=-
*	*	*	*	*	*clefG2
4T	4I	4A	[2D	4ff#	4a
4T	4viio	4c#	.	4ee	4g
=	=	=309	=309	=309	=309
4T	4I	4d	2D]	4.dd	4f#
4T	4viiob/ii	4F# 4A 4c	.	.	4d# 4a
.	.	.	.	8cc	.
=	=	=310	=310	=310	=310
4T	4ii2	4G 4B	[2D	4b	4e 4g
4T	4viiomb	4E 4G	.	(4b	(4c# 4g
=	=	=311	=311	=311	=311
2T	2I	4F# 4A	2D]	4.a)	4d)
.	.	4A	.	.	4r
.	.	.	.	8g	.
=	=	=312	=312	=312	=312
2T	2viioc/ii	4A 4c	[2D	4d# 4f#	2r
.	.	(4A 4c	.	(4d# 4f#	.
=	=	=313	=313	=313	=313
4T	4ii7d	4G) 4B	4D]	4e) 4g	2r
.	.	.	.	.	.
4T	4viiob	(4E 4B-	[4D	(4c# 4g	.
=	=	=314	=314	=314	=314
4T	4I	4F#) 4A	4D]	4d) 4f#	2r
4P	4viioc/V	4r	(4DD 4D	(4G# 4B 4f#	.
.	.	.	.	.	.
=	=	=315	=315	=315	=315
2D	2V	2r	2AAA;) 2AA;	2A;) 2c#; 2e;	2r
.	.	.	.	.	.
=	=	=316:|!|:	=316:|!|:	=316:|!|:	=316:|!|:
*-	*-	*-	*-	*-	*-
